X:694
T:Shiftin'Bobbins
C:Joe Buchanan's Scottish Tome - Page 220.1
I:220 1
Z:Carl Allison
C:Muriel Rimmer
R:Reel
L:1/8
M:4/4
K:A
e | ^d/e/e/e/ fe | ^de cA | E/E/E/E/ Ac | cd d2 |
^d/e/e/e/ fe | gf ef | g/f/e/d/ cB | AF E2 |
^d/e/e/e/ fe | ^de cA | E/E/E/E/ Ac | cd d2 |
c/d/d/d/ ^AB | =G^G ^DE | E/F/G/A/ cB | A2 A2 |
E/E/E/E/ FE | ^DE FE | E/E/E/E/ Ac | ^AB B2 |
G/G/G/G/ AG | =G^G ^DE | G>F E^D | FE E2 |
E/E/E/E/ FE | ^DE FE | E/E/E/E/ Ac | cd d2 |
cd/d/ ^AB | =G^G ^DE | E/F/G/A/ cB | A2 A |

